X: 1
T: Thrush in the Meadow, The
M: 6/8
L: 1/8
D: The Dangerous Reel, Mike and Mary Rafferty
K: D
f|:afd edB|dcB AFA|dcd ede|fed efg|
afd edB|dcB AFA|dcd ede|1 fdc d2f:|2 fdc d2e||
faf ~g3|faf {g}fed|faf g2 b|afd e2d|
faf ~g3|faf {g}fed|faf ede|1 fdc d2e:|2 fdc d2f||
